assets/img/icons/user.svg

<svg class="menu_mobile-only menu__list__item__icon menu__list__item__icon_user" viewBox="0 0 62 83" xmlns="http://www.w3.org/2000/svg">
    <path d="M61.965294,70.977913 C61.984627,72.204979 61.994876,72.417218 62,72.30772 C61.999301,72.63295 61.998835,73.11101 61.998835,73.798512 C61.998835,73.798512 57.434833,83 31.0006988,83 C4.5660991,83 0.0025622,73.798512 0.0025622,73.798512 C0.0025622,72.728469 0.0011646,72.114819 0,71.783066 C0.0051244,71.960125 0.0184014,71.879983 0.0470516,70.354711 C0.3964445,51.675663 3.0536938,46.2905 22.0129163,42.868132 C22.0129163,42.868132 24.7116269,46.307041 31.0006988,46.307041 C37.289771,46.307041 39.988015,42.868132 39.988015,42.868132 C59.156408,46.328242 61.661322,51.794479 61.965294,70.977913 Z M30.5509542,40.131868 C21.6183929,40.131868 14.3768116,31.1481328 14.3768116,20.0660513 C14.3768116,8.9837353 16.7547881,0 30.5509542,0 C44.34712,0 46.724638,8.9837353 46.724638,20.0660513 C46.724638,31.1481328 39.483056,40.131868 30.5509542,40.131868 Z" id="Shape"></path>
</svg>

<svg class="menu_mobile-only menu__list__item__icon menu__list__item__icon_user" viewBox="0 0 62 83" xmlns="http://www.w3.org/2000/svg"><path d="M61.965 70.978c.02 1.227.03 1.44.035 1.33l-.001 1.49S57.435 83 31 83C4.566 83 .003 73.799.003 73.799c0-1.07-.002-1.684-.003-2.016.005.177.018.097.047-1.428.35-18.68 3.007-24.065 21.966-27.487 0 0 2.699 3.439 8.988 3.439s8.987-3.439 8.987-3.439c19.168 3.46 21.673 8.926 21.977 28.11zM30.551 40.132c-8.933 0-16.174-8.984-16.174-20.066C14.377 8.984 16.755 0 30.55 0s16.174 8.984 16.174 20.066c0 11.082-7.242 20.066-16.174 20.066z"/></svg>
